Avidclan_Website/assets/images/icons/database-ic.svg

<?xml version="1.0" encoding="utf-8"?>
<!-- Generator: Adobe Illustrator 24.1.1, SVG Export Plug-In . SVG Version: 6.00 Build 0)  -->
<svg version="1.1" id="Layer_1" xmlns="http://www.w3.org/2000/svg" xmlns:xlink="http://www.w3.org/1999/xlink" x="0px" y="0px"
	 viewBox="0 0 378.9 341" style="enable-background:new 0 0 378.9 341;" xml:space="preserve">
<style type="text/css">
	.st0{fill:#007AFB;}
</style>
<path class="st0" d="M189.4,0C95.3,0,0,19.5,0,56.8v227.3C0,321.5,95.3,341,189.4,341s189.4-19.5,189.4-56.8V56.8
	C378.9,19.5,283.6,0,189.4,0L189.4,0z M189.4,18.9c110.3,0,170.5,25,170.5,37.9c0,15.8-64.9,37.9-170.5,37.9S18.9,72.7,18.9,56.8
	C18.9,44,79.1,18.9,189.4,18.9z M189.4,322c-110.3,0-170.5-25-170.5-37.9v-54.8c29.8,20.3,101.8,31.1,170.5,31.1
	c19.4,0,38.6-0.8,57.3-2.4c2.6-0.2,4.5-2.5,4.3-5.1c-0.2-2.6-2.5-4.5-5.1-4.3c-18.4,1.6-37.4,2.4-56.5,2.4
	c-88,0-153.2-16.3-170.5-33.6v-63.8C36,165.2,64.8,172.3,84.7,176c0.3,0.1,0.6,0.1,0.9,0.1c2.2,0,4.2-1.6,4.7-3.9
	c0.5-2.6-1.2-5-3.8-5.5c-38.6-7.2-59.1-16.9-67.5-25.2V72.9c25.7,20.4,99.9,31.3,170.5,31.3c70.6,0,144.8-10.9,170.5-31.3v68.7
	c-17.3,17.3-82.4,33.6-170.5,33.6c-19.1,0-38.1-0.8-56.5-2.3c-2.5-0.2-4.9,1.7-5.1,4.3c-0.2,2.6,1.7,4.9,4.3,5.1
	c18.7,1.6,38,2.4,57.3,2.4c68.7,0,140.7-10.8,170.5-31.1v63.6c-8.4,8.4-28.9,18-67.6,25.2c-2.6,0.5-4.3,3-3.8,5.5
	c0.4,2.3,2.4,3.9,4.7,3.9c0.3,0,0.6,0,0.9-0.1c19.9-3.7,48.7-10.8,65.8-22.4v54.8C359.9,297,299.7,322,189.4,322L189.4,322z
	 M274.7,251c0,2.6-2.1,4.7-4.7,4.7s-4.7-2.1-4.7-4.7s2.1-4.7,4.7-4.7C272.6,246.3,274.7,248.4,274.7,251z M113.7,175.2
	c0,2.6-2.1,4.7-4.7,4.7s-4.7-2.1-4.7-4.7s2.1-4.7,4.7-4.7C111.5,170.5,113.7,172.6,113.7,175.2z"/>
</svg>

<svg width="379" height="341" viewBox="0 0 379 341" fill="none" xmlns="http://www.w3.org/2000/svg">
<g clip-path="url(#clip0_493_266)">
<path d="M189.4 0C95.3 0 0 19.5 0 56.8V284.1C0 321.5 95.3 341 189.4 341C283.5 341 378.8 321.5 378.8 284.2V56.8C378.9 19.5 283.6 0 189.4 0ZM189.4 18.9C299.7 18.9 359.9 43.9 359.9 56.8C359.9 72.6 295 94.7 189.4 94.7C83.8 94.7 18.9 72.7 18.9 56.8C18.9 44 79.1 18.9 189.4 18.9ZM189.4 322C79.1 322 18.9 297 18.9 284.1V229.3C48.7 249.6 120.7 260.4 189.4 260.4C208.8 260.4 228 259.6 246.7 258C249.3 257.8 251.2 255.5 251 252.9C250.8 250.3 248.5 248.4 245.9 248.6C227.5 250.2 208.5 251 189.4 251C101.4 251 36.2 234.7 18.9 217.4V153.6C36 165.2 64.8 172.3 84.7 176C85 176.1 85.3 176.1 85.6 176.1C87.8 176.1 89.8 174.5 90.3 172.2C90.8 169.6 89.1 167.2 86.5 166.7C47.9 159.5 27.4 149.8 19 141.5V72.9C44.7 93.3 118.9 104.2 189.5 104.2C260.1 104.2 334.3 93.3 360 72.9V141.6C342.7 158.9 277.6 175.2 189.5 175.2C170.4 175.2 151.4 174.4 133 172.9C130.5 172.7 128.1 174.6 127.9 177.2C127.7 179.8 129.6 182.1 132.2 182.3C150.9 183.9 170.2 184.7 189.5 184.7C258.2 184.7 330.2 173.9 360 153.6V217.2C351.6 225.6 331.1 235.2 292.4 242.4C289.8 242.9 288.1 245.4 288.6 247.9C289 250.2 291 251.8 293.3 251.8C293.6 251.8 293.9 251.8 294.2 251.7C314.1 248 342.9 240.9 360 229.3V284.1C359.9 297 299.7 322 189.4 322ZM274.7 251C274.7 253.6 272.6 255.7 270 255.7C267.4 255.7 265.3 253.6 265.3 251C265.3 248.4 267.4 246.3 270 246.3C272.6 246.3 274.7 248.4 274.7 251ZM113.7 175.2C113.7 177.8 111.6 179.9 109 179.9C106.4 179.9 104.3 177.8 104.3 175.2C104.3 172.6 106.4 170.5 109 170.5C111.5 170.5 113.7 172.6 113.7 175.2Z" fill="#0E53BE"/>
</g>
<defs>
<clipPath id="clip0_493_266">
<rect width="378.9" height="341" fill="white"/>
</clipPath>
</defs>
</svg>
